icons/fm-pin.svg

<svg
  viewBox="0 0 16 16"
  xmlns="http://www.w3.org/2000/svg"
>
  <path
    d="M 10.399,0 C 10.1868,0 9.96868,0.110799 9.81548,0.257437 8.57661,1.44366 8.19726,2.43565 8.65021,3.79451 7.59335,4.60458 6.92584,4.80338 5.60649,4.80338 c -1.80357,0 -2.98116,0.21744 -3.78243,1.01815 v 0.02495 c -0.74975,0.74944 -0.74975,1.94942 0,2.69821 l 2.24013,2.25761 -3.81682799,3.8151 c -0.3123964,0.312 -0.3356757,0.836 -0.02328,1.148 0.312476,0.3128 0.83758799,0.3128 1.15006799,0 l 3.83099,-3.8319 2.24389,2.2327 c 0.74983,0.7496 1.95013,0.7496 2.69997,0 h 0.025 c 0.8016,-0.8008 1.025,-1.8272 1.025,-3.7727 0,-1.23682 0.2538,-2.1096 1.0224,-3.02799 1.4791,0.43359 2.3396,0.0184 3.5526,-1.19415 0.15,-0.14999 0.2249,-0.36263 0.2249,-0.57471 0,-0.28135 -0.071,-0.71263 -0.25,-1.24926 C 15.4607,3.48332 14.9645,2.61397 14.174,1.8239 13.3834,1.03391 12.5135,0.537915 11.649,0.249838 11.112,0.0709604 10.6805,0 10.399,0 Z m 0.3098,1.64366 c 0.8499,0.15776 1.7057,0.72039 2.3151,1.32958 0.6095,0.60911 1.1286,1.35518 1.3434,2.33301 -0.7635,0.73247 -1.2306,0.79039 -1.9943,0.3884 -0.3046,-0.1604 -0.6906,-0.10368 -0.934,0.13968 -1.4568,1.45598 -1.84,2.77676 -1.84,4.55917 0,1.5519 -0.09128,2.1287 -0.57503,2.6487 -0.13656,0.1472 -0.32496,0.1248 -0.44992,0 L 2.94909,7.42071 C 2.82413,7.29591 2.82797,7.13591 2.92869,7.01351 3.21444,6.66552 3.85044,6.3952 5.59905,6.39616 7.68943,6.39736 8.80069,5.85905 10.174,4.57226 10.4175,4.32891 10.478,3.95563 10.324,3.64779 9.9126,2.82548 9.97676,2.39205 10.7088,1.64366 Z"
  />
</svg>

<svg
  viewBox="0 0 16 16"
  xmlns="http://www.w3.org/2000/svg"
>
  <path
    d="M10.3979 0C10.1857 0 9.96758 0.110799 9.81438 0.257437C8.57551 1.44366 8.19616 2.43565 8.64911 3.79451C7.59225 4.60458 6.92474 4.80338 5.60539 4.80338C3.80182 4.80338 2.62423 5.02082 1.82296 5.82153V5.84648C1.07321 6.59592 1.07321 7.7959 1.82296 8.54469L4.06309 10.8023L0.246262 14.6174C-0.0661344 14.9294 -0.0894137 15.4534 0.222982 15.7654C0.535458 16.0782 1.06057 16.0782 1.37305 15.7654L5.20404 11.9335L7.44793 14.1662C8.19776 14.9158 9.39806 14.9158 10.1479 14.1662H10.1729C10.9745 13.3654 11.1979 12.339 11.1979 10.3935C11.1979 9.15668 11.4517 8.2839 12.2203 7.36551C13.6994 7.7991 14.5599 7.38391 15.7729 6.17136C15.9229 6.02137 15.9978 5.80873 15.9978 5.59665C15.9978 5.3153 15.9268 4.88402 15.7478 4.34739C15.4596 3.48332 14.9634 2.61397 14.1729 1.8239C13.3823 1.03391 12.5124 0.537915 11.6479 0.249838C11.1109 0.0709604 10.6794 0 10.3979 0ZM10.7077 1.64366C11.5576 1.80142 12.4134 2.36405 13.0228 2.97324C13.6323 3.58235 14.1514 4.32842 14.3662 5.30625C13.6027 6.03872 13.1356 6.09664 12.3719 5.69465C12.0673 5.53425 11.6813 5.59097 11.4379 5.83433C9.9811 7.29031 9.5979 8.61109 9.5979 10.3935C9.5979 11.9454 9.50662 12.5222 9.02287 13.0422C8.88631 13.1894 8.69791 13.167 8.57295 13.0422L2.94799 7.42071C2.82303 7.29591 2.82687 7.13591 2.92759 7.01351C3.21334 6.66552 3.84934 6.3952 5.59795 6.39616C7.68833 6.39736 8.79959 5.85905 10.1729 4.57226C10.4164 4.32891 10.4769 3.95563 10.3229 3.64779C9.9115 2.82548 9.97566 2.39205 10.7077 1.64366Z"
  />
</svg>
